public/assets/kist.svg

<svg width="1308" height="977" fill="none" xmlns="http://www.w3.org/2000/svg"><path d="M999.5 514.771c-.7-.5-1.5-.7-2.5-.4-5 1.5-6.1-11.4-32.8-11.8-26.7-.4-3.1 32.1-3.1 32.1l-.2 10.7h38.6v-30.6zM375.401 543.371c-4.6-8 7.2-5.7 8.8-26.3 8-31.7-33.2-8.8-33.2-8.8-3.9 6.4-10.2 10-15.7 12v25h40.4c.2-.6.1-1.2-.3-1.9z" fill="#A75155"/><path d="M972.503 298.67c-17.7 4.5-8.7-9.6-1.5-17.7 5.8-6.4.5-11.7-1.9-13.5H362.202c-.3 1.1-2.8 12.6 5.6 15.4 8.7 3 17.4 18.7 1.1 17.7-16.3-1-21.1-8.3-29.2-.9-1.6 1.5-3.1 1.7-4.3 1.2v219.3c5.5-2 11.8-5.6 15.7-12 0 0 41.2-22.9 33.2 8.8-1.5 20.6-13.4 18.3-8.8 26.3.4.7.4 1.3.2 1.9h585.201l.2-10.7s-23.7-32.4 3.1-32.1c26.7.4 27.9 13.4 32.8 11.8 1-.3 1.8-.1 2.5.4v-212.1c-.9.9-1.7 1.5-2.3 1.7-3.4 1.3-8.5-11.3-24.7-5.5z" fill="#F87980"/><path d="M339.601 299.67c8.1-7.4 12.8-.2 29.2.9s7.7-14.7-1.1-17.7c-8.3-2.8-5.8-14.3-5.5-15.4h-26.9v33.5c1.3.5 2.7.2 4.3-1.3zM969.099 267.47c2.4 1.9 7.7 7.1 1.9 13.5-7.2 8.1-16.2 22.1 1.5 17.7 16.2-5.7 21.3 6.8 24.7 5.5.6-.2 1.4-.9 2.3-1.7v-35h-30.4z" fill="#A75155"/><path d="M996.303 261.671c-20.9-7.6-10.4-22.5-18.5-28 0 0-5-2-8.8-4.1H361.802c-6.8 4.3-1 24.1-19.6 30.9-4.1 1.5-7.1 1.4-9.3.3v6.8H1003.8v-4.9c-2 .4-4.397.2-7.497-1z" fill="#A75155"/><path d="M364.999 229.071c-1.1 0-2.1.2-2.9.6h606.6c-3.2-1.8-5.4-3.7-2.3-4.2 4.9-.9 18.8-3.5 27.8-3.4l-47.6-38.9-548.5-.6-52.9 38.5c9 .1 22.1 2.6 26.9 3.4 6.8 1.2-7.1 4.6-7.1 4.6z" fill="#A75155"/><path d="M342.202 260.57c18.6-6.8 12.8-26.6 19.6-30.9h-28.9l.3-.2h-.3v31.5c2.2 1.1 5.2 1.1 9.3-.4z" fill="#F87980"/><path d="M362.401 229.771c.8-.4 1.6-.4 2.7-.4h.2c1.2-.3 13.5-3.8 7-4.9-4.8-.8-18.2-3.3-27.2-3.4l-12.3 8.5 29.6.2z" fill="#F87980"/><path d="M333.202 229.47l-.3.2h28.9c.1-.1.2-.1.3-.2h-28.9zM1003.5 229.47l.2.2H969c3.8 2.1 8.8 4.1 8.8 4.1 8.1 5.5-2.4 20.3 18.5 28 3.1 1.1 5.6 1.4 7.5 1v-33.3h-.3z" fill="#F87980"/><path d="M966.403 225.571c-3.1.5-1 2.4 2.3 4.2h34.797l-9.297-7.6c-8.9-.1-22.9 2.5-27.8 3.4z" fill="#F87980"/><path d="M968.699 229.47c.1.1.2.1.4.2h34.701l-.2-.2" fill="#F87980"/><path d="M679.101 328.17h-26.6l-4.7-56.7h36.3l-5 56.7z" fill="#5C404E"/><path d="M652.5 328.171h26.6s7.6-76.9 1.1-76.6c-6.5.4-5 1.2-5 1.2s4.4-7.2-6.9-7.4c-11.3-.2-8.2 7.4-8.2 7.4s-8.2-4.4-7.6.6v74.8z" fill="#5C404E"/><path d="M666.901 304.071c-32.8-1.2-23.6 36.8-23.6 36.8l.8-.3 8.9.3c-.9-6.8-2.2-27.9 15.9-27 20.7 1 15.2 26 14.8 27.9l4.7 1.8c-.1 0 11.3-38.2-21.5-39.5z" fill="#BE988D"/><path d="M665.601 302.571c-32.8-1.2-23.6 36.8-23.6 36.8l.8-.3 8.9.3c-.9-6.8-2.2-27.9 15.9-27 20.7 1 15.2 26 14.8 27.9l8.5.2c-.1-.1 7.5-36.7-25.3-37.9z" fill="#FFCBC8"/><path d="M486.399 182.671h28l-42.2 47h-18l32.2-47zM597.999 182.771l21 .1-20.6 47.2-16.2.2 15.8-47.5zM717.801 182.971h18.5l17.5 47-13.1.2-22.9-47.2zM820.102 182.97l24.2.1 32.4 46.9-19.8.1-36.8-47.1z" fill="#F87980"/><path d="M454.202 229.371l-2.1 38.3 18.7-.3 1.4-38h-18z" fill="#F87980"/><path d="M361.5 272.67l638-.6v-4.6H363.4" fill="#5C404E"/><path d="M582.199 229.971l16.2-.2.4 37.5-15.4.1-1.2-37.4zM740.699 229.871l13.1-.2 2.9 37.7h-8.8l-7.2-37.5zM856.898 229.771l19.8-.1 3 37.8-11.8.1-11-37.8z" fill="#F87980"/><path d="M1005.7 369.371H328v-18l678.3-2-.6 20zM1004.8 449.97H330.102v14.9H1004.8v-14.9zM672.501 286.671h-13.2v35.4h13.2v-35.4zM662.899 277.471l10.4.3s2.6-19-4.7-19c-7.3 0-5.7 18.7-5.7 18.7z" fill="#A75155"/><path d="M999.601 377.771v-8.4l-664.3.1v5.5l664.3 2.8zM999.601 469.571v-4.9l-664.3.1v2.2l664.3 2.6z" fill="#5C404E"/><path d="M640.902 340.17l53 .3 1.7 43.5-55 2 .3-45.8z" fill="#CBBEBD"/><path d="M639.8 338.771l53 .3 1.7 43.5-55 2 .3-45.8z" fill="#FFF1F0"/><path d="M363.401 267.47h-28.1v5.3l26.2-.1M972.702 272.07l-1.1-4.6h27.9v4.6h-26.8z" fill="#5C404E"/><g clip-path="url(#clip0)"><path d="M167.093 286.931l-15.522-.316-5.657-132.469h24.231l-3.052 132.785z" fill="#5C414E"/><path d="M140.31 200.668l40.307 2.155-1.816 31.015-38.649 2.628.158-35.798z" fill="#5C414E"/><path d="M177.229 232.55s3.578 8.384 11.787 4.284c8.208-4.1 8.945-7.675 8.392-11.775-.552-4.1-.184-6.071-.184-6.071l9.656.709s.526 4.81-2.5 10.698c-3.025 5.887-6.077 16.243-17.68 14.298-11.602-1.945-16.97-10.881-16.97-10.881l7.499-1.262z" fill="#5C414E"/><path d="M208.798 162.057H197.59v39.347h11.208v-39.347z" fill="#FEF1F0"/><path d="M171.935 147.812h-28.783v5.414h28.783v-5.414zM169.704 146.418l-24.047.132-4.762-16.979h32.203l-3.394 16.847zM167.23 287.824h-16.601v1.814h16.601v-1.814zM171.15 301.57h-23.705l3.605-9.54 16.364-.132 3.736 9.672zM143.315 230.473s-3.578 8.385-11.787 4.285c-8.208-4.101-8.945-7.675-8.393-11.775.527-4.101.185-6.072.185-6.072l-9.656.71s-.526 4.81 2.499 10.697c3.026 5.888 6.078 16.243 17.681 14.272 11.602-1.971 16.969-10.881 16.969-10.881" fill="#5C414E"/><path d="M111.745 199.317h11.208V159.97h-11.208v39.347z" fill="#FEF1F0"/><path d="M197.614 216.201l8.788.736s4.183-9.856 6.945-11.065c2.763-1.209 5.999-1.945 3.526-3.312-2.473-1.367-8.84-2.681-8.84-2.681l-17.838-.368s-4.552-.21-1.184 2.707c3.368 2.918 10.366 6.755 8.603 13.983zM122.92 214.125l-8.788.736s-4.183-9.857-6.946-11.066c-2.762-1.235-6.024-1.945-3.551-3.338s8.84-2.681 8.84-2.681l17.838-.368s4.551-.21 1.184 2.708c-3.368 2.917-10.34 6.781-8.577 14.009z" fill="#5C414E"/><path d="M116.873 146.97s-5.236 4.521.5 12.906c3.526-5.52-.5-12.906-.5-12.906zM203.561 148.547s-3.104 11.959-.342 13.3c2.684-2.681.342-13.3.342-13.3z" fill="#FD6"/></g><g clip-path="url(#clip1)"><path d="M1161.09 286.931l-15.52-.316-5.66-132.469h24.24l-3.06 132.785z" fill="#5C414E"/><path d="M1134.31 200.668l40.31 2.155-1.82 31.015-38.65 2.628.16-35.798z" fill="#5C414E"/><path d="M1171.23 232.55s3.58 8.384 11.79 4.284c8.2-4.1 8.94-7.675 8.39-11.775-.55-4.1-.19-6.071-.19-6.071l9.66.709s.53 4.81-2.5 10.698c-3.03 5.887-6.08 16.243-17.68 14.298-11.6-1.945-16.97-10.881-16.97-10.881l7.5-1.262z" fill="#5C414E"/><path d="M1202.8 162.057h-11.21v39.347h11.21v-39.347z" fill="#FEF1F0"/><path d="M1165.94 147.812h-28.79v5.414h28.79v-5.414zM1163.7 146.418l-24.04.132-4.77-16.979h32.21l-3.4 16.847zM1161.23 287.824h-16.6v1.814h16.6v-1.814zM1165.15 301.57h-23.7l3.6-9.54 16.36-.132 3.74 9.672zM1137.32 230.473s-3.58 8.385-11.79 4.285c-8.21-4.101-8.95-7.675-8.39-11.775.52-4.101.18-6.072.18-6.072l-9.66.71s-.52 4.81 2.5 10.697c3.03 5.888 6.08 16.243 17.68 14.272 11.61-1.971 16.97-10.881 16.97-10.881" fill="#5C414E"/><path d="M1105.75 199.317h11.2V159.97h-11.2v39.347z" fill="#FEF1F0"/><path d="M1191.61 216.201l8.79.736s4.18-9.856 6.95-11.065c2.76-1.209 6-1.945 3.52-3.312-2.47-1.367-8.84-2.681-8.84-2.681l-17.84-.368s-4.55-.21-1.18 2.707c3.37 2.918 10.37 6.755 8.6 13.983zM1116.92 214.125l-8.79.736s-4.18-9.857-6.94-11.066c-2.77-1.235-6.03-1.945-3.56-3.338 2.48-1.393 8.84-2.681 8.84-2.681l17.84-.368s4.55-.21 1.19 2.708c-3.37 2.917-10.34 6.781-8.58 14.009z" fill="#5C414E"/><path d="M1110.87 146.97s-5.23 4.521.5 12.906c3.53-5.52-.5-12.906-.5-12.906zM1197.56 148.547s-3.1 11.959-.34 13.3c2.68-2.681.34-13.3.34-13.3z" fill="#FD6"/></g><defs><clipPath id="clip0"><path fill="#fff" transform="translate(102.77 129.571)" d="M0 0h115v172H0z"/></clipPath><clipPath id="clip1"><path fill="#fff" transform="translate(1096.77 129.571)" d="M0 0h115v172H0z"/></clipPath></defs></svg>

<svg width="1308" height="977" viewBox="0 0 1308 977" fill="none" xmlns="http://www.w3.org/2000/svg">
<path d="M999.5 514.771C998.8 514.271 998 514.071 997 514.371C992 515.871 990.9 502.971 964.2 502.571C937.5 502.171 961.1 534.671 961.1 534.671L960.9 545.371H999.5V514.771Z" fill="#A75155"/>
<path d="M375.401 543.371C370.801 535.371 382.601 537.671 384.201 517.071C392.201 485.371 351.001 508.271 351.001 508.271C347.101 514.671 340.801 518.271 335.301 520.271V545.271H375.701C375.901 544.671 375.801 544.071 375.401 543.371Z" fill="#A75155"/>
<path d="M972.503 298.67C954.803 303.17 963.803 289.07 971.003 280.97C976.803 274.57 971.503 269.27 969.103 267.47H362.202C361.902 268.57 359.402 280.07 367.802 282.87C376.502 285.87 385.202 301.57 368.902 300.57C352.602 299.57 347.802 292.27 339.702 299.67C338.102 301.17 336.602 301.37 335.402 300.87V520.17C340.902 518.17 347.202 514.57 351.102 508.17C351.102 508.17 392.302 485.27 384.302 516.97C382.802 537.57 370.902 535.27 375.502 543.27C375.902 543.97 375.902 544.57 375.702 545.17H960.903L961.103 534.47C961.103 534.47 937.403 502.07 964.203 502.37C990.903 502.77 992.103 515.77 997.003 514.17C998.003 513.87 998.803 514.07 999.503 514.57V302.47C998.603 303.37 997.803 303.97 997.203 304.17C993.803 305.47 988.703 292.87 972.503 298.67Z" fill="#F87980"/>
<path d="M339.601 299.67C347.701 292.27 352.401 299.47 368.801 300.57C385.201 301.67 376.501 285.87 367.701 282.87C359.401 280.07 361.901 268.57 362.201 267.47H335.301V300.97C336.601 301.47 338.001 301.17 339.601 299.67Z" fill="#A75155"/>
<path d="M969.099 267.47C971.499 269.37 976.799 274.57 970.999 280.97C963.799 289.07 954.799 303.07 972.499 298.67C988.699 292.97 993.799 305.47 997.199 304.17C997.799 303.97 998.599 303.27 999.499 302.47V267.47H969.099Z" fill="#A75155"/>
<path d="M996.303 261.671C975.403 254.071 985.903 239.171 977.803 233.671C977.803 233.671 972.803 231.671 969.003 229.571H361.802C355.002 233.871 360.802 253.671 342.202 260.471C338.102 261.971 335.102 261.871 332.902 260.771V267.571H1003.8V262.671C1001.8 263.071 999.403 262.871 996.303 261.671Z" fill="#A75155"/>
<path d="M364.999 229.071C363.899 229.071 362.899 229.271 362.099 229.671H968.699C965.499 227.871 963.299 225.971 966.399 225.471C971.299 224.571 985.199 221.971 994.199 222.071L946.599 183.171L398.099 182.571L345.199 221.071C354.199 221.171 367.299 223.671 372.099 224.471C378.899 225.671 364.999 229.071 364.999 229.071Z" fill="#A75155"/>
<path d="M342.202 260.57C360.802 253.77 355.002 233.97 361.802 229.67H332.902L333.202 229.47H332.902V260.97C335.102 262.07 338.102 262.07 342.202 260.57Z" fill="#F87980"/>
<path d="M362.401 229.771C363.201 229.371 364.001 229.371 365.101 229.371C365.201 229.371 365.201 229.371 365.301 229.371C366.501 229.071 378.801 225.571 372.301 224.471C367.501 223.671 354.101 221.171 345.101 221.071L332.801 229.571L362.401 229.771Z" fill="#F87980"/>
<path d="M333.202 229.47L332.902 229.67H361.802C361.902 229.57 362.002 229.57 362.102 229.47H333.202Z" fill="#F87980"/>
<path d="M1003.5 229.47L1003.7 229.67H969C972.8 231.77 977.8 233.77 977.8 233.77C985.9 239.27 975.4 254.07 996.3 261.77C999.4 262.87 1001.9 263.17 1003.8 262.77V229.47H1003.5Z" fill="#F87980"/>
<path d="M966.403 225.571C963.303 226.071 965.403 227.971 968.703 229.771H1003.5L994.203 222.171C985.303 222.071 971.303 224.671 966.403 225.571Z" fill="#F87980"/>
<path d="M968.699 229.47C968.799 229.57 968.899 229.57 969.099 229.67H1003.8L1003.6 229.47" fill="#F87980"/>
<path d="M679.101 328.17H652.501L647.801 271.47H684.101L679.101 328.17Z" fill="#5C404E"/>
<path d="M652.5 328.171H679.1C679.1 328.171 686.7 251.271 680.2 251.571C673.7 251.971 675.2 252.771 675.2 252.771C675.2 252.771 679.6 245.571 668.3 245.371C657 245.171 660.1 252.771 660.1 252.771C660.1 252.771 651.9 248.371 652.5 253.371V328.171Z" fill="#5C404E"/>
<path d="M666.901 304.071C634.101 302.871 643.301 340.871 643.301 340.871L644.101 340.571L653.001 340.871C652.101 334.071 650.801 312.971 668.901 313.871C689.601 314.871 684.101 339.871 683.701 341.771L688.401 343.571C688.301 343.571 699.701 305.371 666.901 304.071Z" fill="#BE988D"/>
<path d="M665.601 302.571C632.801 301.371 642.001 339.371 642.001 339.371L642.801 339.071L651.701 339.371C650.801 332.571 649.501 311.471 667.601 312.371C688.301 313.371 682.801 338.371 682.401 340.271L690.901 340.471C690.801 340.371 698.401 303.771 665.601 302.571Z" fill="#FFCBC8"/>
<path d="M486.399 182.671H514.399L472.199 229.671H454.199L486.399 182.671Z" fill="#F87980"/>
<path d="M597.999 182.771L618.999 182.871L598.399 230.071L582.199 230.271L597.999 182.771Z" fill="#F87980"/>
<path d="M717.801 182.971H736.301L753.801 229.971L740.701 230.171L717.801 182.971Z" fill="#F87980"/>
<path d="M820.102 182.97L844.302 183.07L876.702 229.97L856.902 230.07L820.102 182.97Z" fill="#F87980"/>
<path d="M454.202 229.371L452.102 267.671L470.802 267.371L472.202 229.371H454.202Z" fill="#F87980"/>
<path d="M361.5 272.67L999.5 272.07V267.47H363.4" fill="#5C404E"/>
<path d="M582.199 229.971L598.399 229.771L598.799 267.271L583.399 267.371L582.199 229.971Z" fill="#F87980"/>
<path d="M740.699 229.871L753.799 229.671L756.699 267.371H747.899L740.699 229.871Z" fill="#F87980"/>
<path d="M856.898 229.771L876.698 229.671L879.698 267.471L867.898 267.571L856.898 229.771Z" fill="#F87980"/>
<path d="M1005.7 369.371H998.8H328V351.371L1006.3 349.371L1005.7 369.371Z" fill="#A75155"/>
<path d="M1004.8 449.97H330.102V464.87H1004.8V449.97Z" fill="#A75155"/>
<path d="M672.501 286.671H659.301V322.071H672.501V286.671Z" fill="#A75155"/>
<path d="M662.899 277.471L673.299 277.771C673.299 277.771 675.899 258.771 668.599 258.771C661.299 258.771 662.899 277.471 662.899 277.471Z" fill="#A75155"/>
<path d="M999.601 377.771V369.371L335.301 369.471V374.971L999.601 377.771Z" fill="#5C404E"/>
<path d="M999.601 469.571V464.671L335.301 464.771V466.971L999.601 469.571Z" fill="#5C404E"/>
<path d="M640.902 340.17L693.902 340.47L695.602 383.97L640.602 385.97L640.902 340.17Z" fill="#CBBEBD"/>
<path d="M639.8 338.771L692.8 339.071L694.5 382.571L639.5 384.571L639.8 338.771Z" fill="#FFF1F0"/>
<path d="M363.401 267.47H335.301V272.77L361.501 272.67" fill="#5C404E"/>
<path d="M972.702 272.07L971.602 267.47H999.502V272.07H972.702Z" fill="#5C404E"/>
<g clip-path="url(#clip0)">
<path d="M167.093 286.931L151.571 286.615L145.914 154.146H170.145L167.093 286.931Z" fill="#5C414E"/>
<path d="M140.31 200.668L180.617 202.823L178.801 233.838L140.152 236.466L140.31 200.668Z" fill="#5C414E"/>
<path d="M177.229 232.55C177.229 232.55 180.807 240.934 189.016 236.834C197.224 232.734 197.961 229.159 197.408 225.059C196.856 220.959 197.224 218.988 197.224 218.988L206.88 219.697C206.88 219.697 207.406 224.507 204.38 230.395C201.355 236.282 198.303 246.638 186.7 244.693C175.098 242.748 169.73 233.812 169.73 233.812L177.229 232.55Z" fill="#5C414E"/>
<path d="M208.798 162.057H197.59V201.404H208.798V162.057Z" fill="#FEF1F0"/>
<path d="M171.935 147.812H143.152V153.226H171.935V147.812Z" fill="#5C414E"/>
<path d="M169.704 146.418L145.657 146.55L140.895 129.571H173.098L169.704 146.418Z" fill="#5C414E"/>
<path d="M167.23 287.824H150.629V289.638H167.23V287.824Z" fill="#5C414E"/>
<path d="M171.15 301.57H147.445L151.05 292.03L167.414 291.898L171.15 301.57Z" fill="#5C414E"/>
<path d="M143.315 230.473C143.315 230.473 139.737 238.858 131.528 234.758C123.32 230.657 122.583 227.083 123.135 222.983C123.662 218.882 123.32 216.911 123.32 216.911L113.664 217.621C113.664 217.621 113.138 222.431 116.163 228.318C119.189 234.206 122.241 244.561 133.844 242.59C145.446 240.619 150.813 231.709 150.813 231.709" fill="#5C414E"/>
<path d="M111.745 199.317L122.953 199.317L122.953 159.97L111.745 159.97L111.745 199.317Z" fill="#FEF1F0"/>
<path d="M197.614 216.201L206.402 216.937C206.402 216.937 210.585 207.081 213.347 205.872C216.11 204.663 219.346 203.927 216.873 202.56C214.4 201.193 208.033 199.879 208.033 199.879L190.195 199.511C190.195 199.511 185.643 199.301 189.011 202.218C192.379 205.136 199.377 208.973 197.614 216.201Z" fill="#5C414E"/>
<path d="M122.92 214.125L114.132 214.861C114.132 214.861 109.949 205.004 107.186 203.795C104.424 202.56 101.162 201.85 103.635 200.457C106.108 199.064 112.475 197.776 112.475 197.776L130.313 197.408C130.313 197.408 134.864 197.198 131.497 200.116C128.129 203.033 121.157 206.897 122.92 214.125Z" fill="#5C414E"/>
<path d="M116.873 146.97C116.873 146.97 111.637 151.491 117.373 159.876C120.899 154.356 116.873 146.97 116.873 146.97Z" fill="#FFDD66"/>
<path d="M203.561 148.547C203.561 148.547 200.457 160.506 203.219 161.847C205.903 159.166 203.561 148.547 203.561 148.547Z" fill="#FFDD66"/>
</g>
<g clip-path="url(#clip1)">
<path d="M1161.09 286.931L1145.57 286.615L1139.91 154.146H1164.15L1161.09 286.931Z" fill="#5C414E"/>
<path d="M1134.31 200.668L1174.62 202.823L1172.8 233.838L1134.15 236.466L1134.31 200.668Z" fill="#5C414E"/>
<path d="M1171.23 232.55C1171.23 232.55 1174.81 240.934 1183.02 236.834C1191.22 232.734 1191.96 229.159 1191.41 225.059C1190.86 220.959 1191.22 218.988 1191.22 218.988L1200.88 219.697C1200.88 219.697 1201.41 224.507 1198.38 230.395C1195.35 236.282 1192.3 246.638 1180.7 244.693C1169.1 242.748 1163.73 233.812 1163.73 233.812L1171.23 232.55Z" fill="#5C414E"/>
<path d="M1202.8 162.057H1191.59V201.404H1202.8V162.057Z" fill="#FEF1F0"/>
<path d="M1165.94 147.812H1137.15V153.226H1165.94V147.812Z" fill="#5C414E"/>
<path d="M1163.7 146.418L1139.66 146.55L1134.89 129.571H1167.1L1163.7 146.418Z" fill="#5C414E"/>
<path d="M1161.23 287.824H1144.63V289.638H1161.23V287.824Z" fill="#5C414E"/>
<path d="M1165.15 301.57H1141.45L1145.05 292.03L1161.41 291.898L1165.15 301.57Z" fill="#5C414E"/>
<path d="M1137.32 230.473C1137.32 230.473 1133.74 238.858 1125.53 234.758C1117.32 230.657 1116.58 227.083 1117.14 222.983C1117.66 218.882 1117.32 216.911 1117.32 216.911L1107.66 217.621C1107.66 217.621 1107.14 222.431 1110.16 228.318C1113.19 234.206 1116.24 244.561 1127.84 242.59C1139.45 240.619 1144.81 231.709 1144.81 231.709" fill="#5C414E"/>
<path d="M1105.75 199.317L1116.95 199.317L1116.95 159.97L1105.75 159.97L1105.75 199.317Z" fill="#FEF1F0"/>
<path d="M1191.61 216.201L1200.4 216.937C1200.4 216.937 1204.58 207.081 1207.35 205.872C1210.11 204.663 1213.35 203.927 1210.87 202.56C1208.4 201.193 1202.03 199.879 1202.03 199.879L1184.19 199.511C1184.19 199.511 1179.64 199.301 1183.01 202.218C1186.38 205.136 1193.38 208.973 1191.61 216.201Z" fill="#5C414E"/>
<path d="M1116.92 214.125L1108.13 214.861C1108.13 214.861 1103.95 205.004 1101.19 203.795C1098.42 202.56 1095.16 201.85 1097.63 200.457C1100.11 199.064 1106.47 197.776 1106.47 197.776L1124.31 197.408C1124.31 197.408 1128.86 197.198 1125.5 200.116C1122.13 203.033 1115.16 206.897 1116.92 214.125Z" fill="#5C414E"/>
<path d="M1110.87 146.97C1110.87 146.97 1105.64 151.491 1111.37 159.876C1114.9 154.356 1110.87 146.97 1110.87 146.97Z" fill="#FFDD66"/>
<path d="M1197.56 148.547C1197.56 148.547 1194.46 160.506 1197.22 161.847C1199.9 159.166 1197.56 148.547 1197.56 148.547Z" fill="#FFDD66"/>
</g>
<defs>
<clipPath id="clip0">
<rect width="115" height="172" fill="white" transform="translate(102.77 129.571)"/>
</clipPath>
<clipPath id="clip1">
<rect width="115" height="172" fill="white" transform="translate(1096.77 129.571)"/>
</clipPath>
</defs>
</svg>
